X:716
T:Reel 716
M:4/4
K:Cmaj
L:1/8
D2DC EFGE|D2CE GA,A,B,|DEDE CDEF|D2DC B,G,G,B,|C2A,C DEFD|E2ED EFG2|AGFE DEFD|EGAF ECC2|BGGG ABcA|GEcE ECD2|BcAG E2EF|GEce ecc2|GcBc AdcA|GEEG FEDC|EGAB cdec|BGAB cAGE|
